svgs/sharp-regular/list-radio.svg

<svg xmlns="http://www.w3.org/2000/svg" viewBox="0 0 512 512"><!--! Font Awesome Pro 6.6.0 by @fontawesome - https://fontawesome.com License - https://fontawesome.com/license (Commercial License) Copyright 2024 Fonticons, Inc. --><path d="M64 32a64 64 0 1 0 0 128A64 64 0 1 0 64 32zM184 72l-24 0 0 48 24 0 304 0 24 0 0-48-24 0L184 72zm0 160l-24 0 0 48 24 0 304 0 24 0 0-48-24 0-304 0zm0 160l-24 0 0 48 24 0 304 0 24 0 0-48-24 0-304 0zM64 280a24 24 0 1 1 0-48 24 24 0 1 1 0 48zm0-88a64 64 0 1 0 0 128 64 64 0 1 0 0-128zM40 416a24 24 0 1 1 48 0 24 24 0 1 1 -48 0zm88 0A64 64 0 1 0 0 416a64 64 0 1 0 128 0z"/></svg>

<svg xmlns="http://www.w3.org/2000/svg" viewBox="0 0 512 512"><!--! Font Awesome Pro 6.4.0 by @fontawesome - https://fontawesome.com License - https://fontawesome.com/license (Commercial License) Copyright 2023 Fonticons, Inc. --><path d="M64 32a64 64 0 1 0 0 128A64 64 0 1 0 64 32zM184 72H160v48h24H488h24V72H488 184zm0 160H160v48h24H488h24V232H488 184zm0 160H160v48h24H488h24V392H488 184zM64 280a24 24 0 1 1 0-48 24 24 0 1 1 0 48zm0-88a64 64 0 1 0 0 128 64 64 0 1 0 0-128zM40 416a24 24 0 1 1 48 0 24 24 0 1 1 -48 0zm88 0A64 64 0 1 0 0 416a64 64 0 1 0 128 0z"/></svg>
